!!!ONB: MCCC : IFC0049_00 : Extracted Monophonic Melody
!!!COM: Chopin, Frédéric
!!!OTL: Mazurkas
!!!SCT: Op.17
!!!ODT: 1831///
**kern
*staff1
*clefG2
*k[]
*C:
*M3/4
*MM120
=1
8.g
16b
4cc
4a
=2
4g
2cc
=3
8.g
16b
8cc
8dd
8ee
8cc
=4
8ee
8ff#
2gg
=5
8.gg
16ff#
8ee
8ff#
8dd
8ff#
=6
4.gg
8gg#
8aa
8gg
=7
8gg
8ff#
4dd
4ff#
=8
2gg
8gg
8ff
=9
12ee
12ff
12ee
8dd#
8ee
8gg
8ff
=10
8.ee
16a
4.dd
8cc
=11
12b
12cc
12b
8a#
8b
8cc
8dd
=12
8g
8r
4.cc
8dd
=13
12ee
12ff
12ee
8dd#
8ee
8gg
8ff
=14
8.ee
16a
4.dd
8cc
=15
8b
8aa
8aa-
8gg
8ff#
8ff
=16
8.ee
16dd
2cc
=17
8.g
16b
4cc
4a
=18
4g
2cc
=19
8.g
16b
8cc
8dd
8ee
8cc
=20
8ee
8ff#
2gg
=21
8.gg
16ff#
8ee
8ff#
8dd
8ff#
=22
4.gg
8gg#
8aa
8gg
=23
8gg
8ff#
4dd
4ff#
=24
2gg
8gg
8ff
=25
12ee
12ff
12ee
8dd#
8ee
8gg
8ff
=26
8.ee
16a
4.dd
8cc
=27
12b
12cc
12b
8a#
8b
8cc
8dd
=28
8g
8r
4.cc
8dd
=29
12ee
12ff
12ee
8dd#
8ee
8gg
8ff
=30
8.ee
16a
4.dd
8cc
=31
8b
8aa
8aa-
8gg
8ff#
8ff
=32
8.ee
16dd
2cc
=33
4cc
4cc
8b
8a
=34
8b
16r
16gg
4bb
4ccc
=35
8bb
8aa
4ff#
4bb
=36
8.aa
16gg
4.dd
8ee
=37
8.dd
16dd
4dd
4dd
=38
8.dd
16gg
4bb
4ccc
=39
8.bb
16aa
4ff#
4bb
=40
8aa
8gg
4gg
8ff#
8ee
=41
8dd
8dd
4dd
8dd
8dd
=42
8.dd
16gg
4.bb
8ccc
=43
8.bb
16aa
4.ff#
8bb
=44
8.aa
16gg
4.dd
8ee
=45
8.dd
16dd
4dd
4dd
=46
8.dd
16gg
4.bb
8ccc
=47
8bb
16r
16aa#
4aa
4bb
=48
8aa
8aa-
6gg
6ff#
6ff
=49
12ee
12ff
12ee
8dd#
8ee
8gg
8ff
=50
8.ee
16a
4.dd
8cc
=51
12b
12cc
12b
8a#
8b
8cc
8dd
=52
8g
8r
4.cc
8dd
=53
12ee
12ff
12ee
8dd#
8ee
8gg
8ff
=54
8.ee
16a
4.dd
8cc
=55
8b
8aa
8aa-
8gg
8ff#
8ff
=56
8.ee
16dd
2cc
=57
4cc
4cc
8b
8a
=58
8b
16r
16gg
4bb
4ccc
=59
8bb
8aa
4ff#
4bb
=60
8.aa
16gg
4.dd
8ee
=61
8.dd
16dd
4dd
4dd
=62
8.dd
16gg
4bb
4ccc
=63
8.bb
16aa
4ff#
4bb
=64
8aa
8gg
4gg
8ff#
8ee
=65
8dd
8dd
4dd
8dd
8dd
=66
8.dd
16gg
4.bb
8ccc
=67
8.bb
16aa
4.ff#
8bb
=68
8.aa
16gg
4.dd
8ee
=69
8.dd
16dd
4dd
4dd
=70
8.dd
16gg
4.bb
8ccc
=71
8bb
16r
16aa#
4aa
4bb
=72
8aa
8aa-
6gg
6ff#
6ff
=73
12ee
12ff
12ee
8dd#
8ee
8gg
8ff
=74
8.ee
16a
4.dd
8cc
=75
12b
12cc
12b
8a#
8b
8cc
8dd
=76
8g
8r
4.cc
8dd
=77
12ee
12ff
12ee
8dd#
8ee
8gg
8ff
=78
8.ee
16a
4.dd
8cc
=79
8b
8aa
8aa-
8gg
8ff#
8ff
=80
8.ee
16dd
2cc
=81
*k[b-]
*F:
8cc
8dd
4ee
8ff
8gg
=82
8aa
8ccc
4.ddd
8ccc
=83
12bb
12ccc
12ddd
4ccc
8gg
8bb-
=84
8aa
8ccc
4.ddd
8ccc
=85
12bb
12ccc
12ddd
4ccc
8gg
8bb-
=86
8aa
8bb-
4.ddd
8ccc
=87
12bb
12ccc
12ddd
4ccc
8gg
8aa
=88
12ff
12gg
12aa
4gg
8ff
8dd
=89
8cc
16r
16dd
4ee
8ff
8gg
=90
8aa
8bb-
4.ddd
8ccc
=91
12bb-
12ccc
12ddd
4ccc
8gg
8bb-
=92
8aa
8bb-
4.ddd
8ccc
=93
12bb
12ccc
12ddd
4ccc
8gg
8bb-
=94
8aa
8bb-
4.ddd
8ccc
=95
12bb
12ccc
12ddd
4ccc
8gg
8aa
=96
4ff
4fff
4r
=97
*k[]
*C:
8.g
16b
4cc
4a
=98
4g
2cc
=99
8.g
16b
8cc
8dd
8ee
8cc
=100
8ee
8ff#
2gg
=101
8.gg
16ff#
8ee
8ff#
8dd
8ff#
=102
4.gg
8gg
8aa
8gg
=103
8gg
8ff#
4dd
4ff#
=104
2gg
8gg
8ff
=105
12ee
12ff
12ee
8dd#
8ee
8gg
8ff
=106
8.ee
16a
4.dd
8cc
=107
12b
12cc
12b
8a#
8b
8cc
8dd
=108
8g
8r
4.cc
8dd
=109
12ee
12ff
12ee
8dd#
8ee
8gg
8ff
=110
8.ee
16a
4.dd
8cc#
=111
8b
8aa
8aa-
8gg
8ff#
8ff
=112
8.ee
16dd
2cc
=113
4cc
4cc
8b
8a
=114
8b
16r
16gg
4bb
4ccc
=115
8bb
8aa
4ff#
4bb
=116
8aa
8gg
4.dd
8ee
=117
8.dd
16dd
4dd
4dd
=118
8.dd
16gg
4bb
8ddd
8ccc
=119
8.bb
16aa
4ff#
4bb
=120
8.aa
16gg
4gg
8ff#
8ee
=121
8dd
8dd
4dd
8dd
8dd
=122
8.dd
16gg
4.bb
8ccc
=123
8.bb
16aa
4.ff#
8ccc
=124
8.aa
16gg
4.dd
8ee
=125
8.dd
16dd
4dd
4dd
=126
8.dd
16gg
4bb
8ddd
8ccc
=127
8bb
16r
16aa#
4aa
4bb
=128
8aa
8aa-
6gg
6ff#
6ff
=129
12ee
12ff
12ee
8dd#
8ee
8gg
8ff
=130
8.ee
16a
4.dd
8cc
=131
12b
12cc
12b
8a#
8b
8cc
8dd
=132
8g
8r
4.cc
8dd
=133
12ee
12ff
12ee
8dd#
8ee
8gg
8ff
=134
8.ee
16a
4.dd
8cc
=135
8b
8aa
8gg
8ff
8dd
8ee
=136
4cc
4ccc
4r
==
*-
